X:656
T:Reel 656
M:4/4
K:Dmaj
L:1/8
D2CD B,DA,C|D2FA GFEC|D2CD B,DA,G| (3FGA dF GFEC|D2CD B,DA,C|DFAc BAGF|DEFD EDB,G| (3FGA ED CA,A,C| (3Bcd AF GFEF|DEFD EA,CE| (3FGF AD FAED| (3CB,A, EC A,B,CA,| (3FGF AD BDAD| (3FED AD CDEG|FABc dcdB|AGFE  (3DEF ED|
